evolvere-2-blue-mono/apps/16/counter-strike.svg

<?xml version="1.0" encoding="UTF-8"?>
<!-- Created with Inkscape (http://www.inkscape.org/) -->
<svg width="16" height="16" version="1.1" xmlns="http://www.w3.org/2000/svg" xmlns:cc="http://creativecommons.org/ns#" xmlns:dc="http://purl.org/dc/elements/1.1/" xmlns:rdf="http://www.w3.org/1999/02/22-rdf-syntax-ns#">
	<defs>
		<style id="current-color-scheme" type="text/css">.ColorScheme-Text {color:#090d11;}.ColorScheme-Background{color:#ffffff;}</style>
	</defs>
	<metadata>
		<rdf:RDF>
			<cc:Work rdf:about="">
				<dc:format>image/svg+xml</dc:format>
				<dc:type rdf:resource="http://purl.org/dc/dcmitype/StillImage"/>
			</cc:Work>
		</rdf:RDF>
	</metadata>
	<g transform="translate(3446.7 -3647.7)">
		<path id="a" class="ColorScheme-Text" transform="translate(-3446.7 3647.7)" d="m7 1-1 1v1l-1 1v4l-1 3-2 2 1 1h1v-1l2-2 1-2 2 3v3h2v-1l-1-1v-3l-2-3v-1h1l1-1h1l1 1v-2l2-1-1-1v1h-2l-1-1v1h-1v-1h-1v-1h-0.49609z" style="fill-opacity:.75;fill:currentColor"/>
		<path id="c" class="ColorScheme-Background" transform="translate(-3446.7 3647.7)" d="m6.9062 0c-0.22394 0.024212-0.43315 0.12331-0.59375 0.28125l-1 1c-0.19762 0.18709-0.31046 0.44663-0.3125 0.71875v0.59375l-0.6875 0.6875c-0.19762 0.18709-0.31046 0.44663-0.3125 0.71875v3.875l-0.84375 2.5625-1.8438 1.8438c-0.40625 0.39306-0.40625 1.0444 0 1.4375l1 1c0.18456 0.17853 0.43072 0.27924 0.6875 0.28125h1c0.55226-5.5e-5 0.99994-0.44774 1-1v-0.5625l1.7188-1.7188c0.078005-0.08243 0.14141-0.17754 0.1875-0.28125l0.21875-0.46875 0.875 1.3125v2.7188c5.52e-5 0.55226 0.44774 0.99994 1 1h2c0.55226-5.5e-5 0.99994-0.44774 1-1v-1c0.0062-0.26756-0.0951-0.52645-0.28125-0.71875l-0.71875-0.71875v-2.5625c5e-3 -0.19887-0.04938-0.39471-0.15625-0.5625l-1.625-2.4688c0.18704-0.034112 0.36049-0.12083 0.5-0.25l0.71875-0.71875h0.15625l0.71875 0.71875c0.63489 0.60084 1.6808 0.15535 1.6875-0.71875v-1.375l1.4688-0.71875c0.62783-0.30582 0.75688-1.1446 0.25-1.625l-1-1c-0.63298-0.65455-1.7402-0.19155-1.7188 0.71875h-0.5625l-0.71875-0.71875c-0.31743-0.30956-0.80079-0.37316-1.1875-0.15625-0.16207-0.090113-0.346-0.13339-0.53125-0.125-5.52e-5 -0.55226-0.44774-0.99994-1-1h-1c-0.031233-0.0014655-0.062517-0.0014655-0.09375 0zm0.09375 1h1v1h1v1h1v-1l1 1h2v-1l1 1-2 1v2l-1-1h-1l-1 1h-1v1l2 3v3l1 1v1h-2v-3l-2-3-1 2-2 2v1h-1l-1-1 2-2 1-3v-4l1-1v-1z" style="fill-opacity:.5;fill:currentColor"/>
	</g>
</svg>

<?xml version="1.0" encoding="UTF-8" standalone="no"?>
<!-- Created with Inkscape (http://www.inkscape.org/) -->

<svg
   xmlns:dc="http://purl.org/dc/elements/1.1/"
   xmlns:cc="http://creativecommons.org/ns#"
   xmlns:rdf="http://www.w3.org/1999/02/22-rdf-syntax-ns#"
   xmlns:svg="http://www.w3.org/2000/svg"
   xmlns="http://www.w3.org/2000/svg"
   xmlns:sodipodi="http://sodipodi.sourceforge.net/DTD/sodipodi-0.dtd"
   xmlns:inkscape="http://www.inkscape.org/namespaces/inkscape"
   width="16.000002"
   height="16.000013"
   id="svg27665"
   version="1.1"
   inkscape:version="0.48.3.1 r9886"
   sodipodi:docname="588D_cstrike.0.svg">
  <defs
     id="defs27667" />
  <sodipodi:namedview
     id="base"
     pagecolor="#ffffff"
     bordercolor="#666666"
     borderopacity="1.0"
     inkscape:pageopacity="0.0"
     inkscape:pageshadow="2"
     inkscape:zoom="45.254834"
     inkscape:cx="7.6554824"
     inkscape:cy="8.0063475"
     inkscape:document-units="px"
     inkscape:current-layer="layer1"
     showgrid="true"
     inkscape:window-width="1920"
     inkscape:window-height="1023"
     inkscape:window-x="-10"
     inkscape:window-y="35"
     inkscape:window-maximized="1"
     inkscape:snap-bbox="true"
     inkscape:bbox-paths="true"
     inkscape:bbox-nodes="true"
     inkscape:snap-bbox-edge-midpoints="true"
     inkscape:snap-bbox-midpoints="true"
     inkscape:object-paths="true"
     inkscape:snap-intersection-paths="true"
     inkscape:object-nodes="true"
     inkscape:snap-smooth-nodes="true"
     inkscape:snap-midpoints="true"
     inkscape:snap-object-midpoints="true"
     inkscape:snap-center="true"
     inkscape:snap-global="true"
     showguides="false"
     inkscape:guide-bbox="true"
     fit-margin-top="0"
     fit-margin-left="0"
     fit-margin-right="0"
     fit-margin-bottom="0"
     inkscape:showpageshadow="false">
    <sodipodi:guide
       orientation="0,1"
       position="-1440.7659,2520.4813"
       id="guide4179" />
    <sodipodi:guide
       orientation="1,0"
       position="-1438.623,2517.6242"
       id="guide4181" />
    <inkscape:grid
       type="xygrid"
       id="grid3296"
       empspacing="5"
       visible="true"
       enabled="true"
       snapvisiblegridlinesonly="true"
       originx="-91.999521px"
       originy="1268px" />
    <sodipodi:guide
       orientation="1,0"
       position="420.00045,1778"
       id="guide3432" />
    <sodipodi:guide
       orientation="0,1"
       position="364.00043,-118"
       id="guide3434" />
    <sodipodi:guide
       orientation="1,0"
       position="-91.999521,1778"
       id="guide4416" />
    <sodipodi:guide
       orientation="1,0"
       position="599.00047,-118"
       id="guide4418" />
    <sodipodi:guide
       orientation="0,1"
       position="364.00044,117"
       id="guide4420" />
    <sodipodi:guide
       orientation="0,1"
       position="-91.999521,1778"
       id="guide3391" />
    <sodipodi:guide
       orientation="0,1"
       position="198.00045,1763"
       id="guide3393" />
    <sodipodi:guide
       orientation="0,1"
       position="233.00045,1281"
       id="guide3395" />
    <sodipodi:guide
       orientation="1,0"
       position="405.00045,1521"
       id="guide3397" />
    <sodipodi:guide
       orientation="1,0"
       position="-76.999533,1521"
       id="guide3399" />
    <sodipodi:guide
       orientation="1,0"
       position="-66.999533,1521"
       id="guide3401" />
    <sodipodi:guide
       orientation="1,0"
       position="395.00045,1537"
       id="guide3403" />
    <sodipodi:guide
       orientation="0,1"
       position="193.00045,1753"
       id="guide3405" />
    <sodipodi:guide
       orientation="0,1"
       position="163.00045,1291"
       id="guide3407" />
  </sodipodi:namedview>
  <metadata
     id="metadata27670">
    <rdf:RDF>
      <cc:Work
         rdf:about="">
        <dc:format>image/svg+xml</dc:format>
        <dc:type
           rdf:resource="http://purl.org/dc/dcmitype/StillImage" />
        <dc:title />
      </cc:Work>
    </rdf:RDF>
  </metadata>
  <g
     inkscape:label="Camada 1"
     inkscape:groupmode="layer"
     id="layer1"
     transform="translate(3446.7083,-3647.6863)">
    <path
       id="path3000"
       d="m -3439.2052,3648.6867 -0.5027,-4e-4 -1,1 0,1 -1,1 0,4 -1,3 -2,2 1,1 1,0 0,-1 1,-1 1,-1 1,-2 2,3 0,1 0,2 2,0 0,-1 -1,-1 0,-3 -2,-3 0,-1 1,0 1,-1 1,0 1,1 0,-2 2,-1 -1,-1 0,1 -2,0 -1,-1 0,1 -1,0 0,-1 -1,0 0,-1 z"
       style="fill:#27303a;fill-opacity:0.753280819999999968;fill-rule:evenodd;stroke:none"
       inkscape:connector-curvature="0"
       sodipodi:nodetypes="ccccccccccccccccccccccccccccccccccccccc" />
    <path
       style="font-size:medium;font-style:normal;font-variant:normal;font-weight:normal;font-stretch:normal;text-indent:0;text-align:start;text-decoration:none;line-height:normal;letter-spacing:normal;word-spacing:normal;text-transform:none;direction:ltr;block-progression:tb;writing-mode:lr-tb;text-anchor:start;baseline-shift:baseline;color:#000000;fill:#f1f3f5;fill-opacity:0.90288714000000003;fill-rule:nonzero;stroke:none;stroke-width:2;marker:none;visibility:visible;display:inline;overflow:visible;enable-background:accumulate;font-family:Sans;-inkscape-font-specification:Sans"
       d="M 6.90625 0 A 1.0001 1.0001 0 0 0 6.3125 0.28125 L 5.3125 1.28125 A 1.0001 1.0001 0 0 0 5 2 L 5 2.59375 L 4.3125 3.28125 A 1.0001 1.0001 0 0 0 4 4 L 4 7.875 L 3.15625 10.4375 L 1.3125 12.28125 A 1.0001 1.0001 0 0 0 1.3125 13.71875 L 2.3125 14.71875 A 1.0001 1.0001 0 0 0 3 15 L 4 15 A 1.0001 1.0001 0 0 0 5 14 L 5 13.4375 L 5.71875 12.71875 L 6.71875 11.71875 A 1.0001 1.0001 0 0 0 6.90625 11.4375 L 7.125 10.96875 L 8 12.28125 L 8 13 L 8 15 A 1.0001 1.0001 0 0 0 9 16 L 11 16 A 1.0001 1.0001 0 0 0 12 15 L 12 14 A 1.0001 1.0001 0 0 0 11.71875 13.28125 L 11 12.5625 L 11 10 A 1.0001 1.0001 0 0 0 10.84375 9.4375 L 9.21875 6.96875 A 1.0001 1.0001 0 0 0 9.71875 6.71875 L 10.4375 6 L 10.59375 6 L 11.3125 6.71875 A 1.0001 1.0001 0 0 0 13 6 L 13 4.625 L 14.46875 3.90625 A 1.0001 1.0001 0 0 0 14.71875 2.28125 L 13.71875 1.28125 A 1.0001 1.0001 0 0 0 12 2 L 11.4375 2 L 10.71875 1.28125 A 1.0001 1.0001 0 0 0 9.53125 1.125 A 1.0001 1.0001 0 0 0 9 1 A 1.0001 1.0001 0 0 0 8 0 L 7.5 0 L 7 0 A 1.0001 1.0001 0 0 0 6.90625 0 z M 7 1 L 7.5 1 L 8 1 L 8 2 L 9 2 L 9 3 L 10 3 L 10 2 L 11 3 L 13 3 L 13 2 L 14 3 L 12 4 L 12 6 L 11 5 L 10 5 L 9 6 L 8 6 L 8 7 L 10 10 L 10 13 L 11 14 L 11 15 L 9 15 L 9 13 L 9 12 L 7 9 L 6 11 L 5 12 L 4 13 L 4 14 L 3 14 L 2 13 L 4 11 L 5 8 L 5 4 L 6 3 L 6 2 L 7 1 z "
       transform="translate(-3446.7083,3647.6863)"
       id="path9640" />
  </g>
</svg>
